X: 28
T: O'Connell's Lamentation
R: air
%S: s:3 b:24(8+8+8)
B: "O'Neill's 1850 *28"
N: "Moderate" "collected by J. O'Neill"
Z: "Transcribed by Norbert Paap, norbertp@bdu.uva.nl"
M: 6/8
L: 1/8
K: Am
E \
| A2(d/c/) (AGE) | (Gcd) (ea^f) | ({a}gec) (dcA) | (GE^F) G2E |\
| (Adc) (AGE) | (c>de/^f/) ({a}gea) | gec dcA | G3 G2 |]
| (e/^f/) \
| (g>^fa/f/) (g>bag) | (f/e/d/e/f/d/) e2A | (c/B/c/d/e/^f/) g>(ec/A/) | GE(c/A/) GEG |\
| .A(A/B/c/A/) .B(B/c/d/B/) | .c(c/d/e/^f/) gea | gec dcA | A3 A2 |]
| (A/B/) \
| cE^F G2(A/B/) | (c/B/c/d/e/^f/) gea | (g/f/e/g/f/e/) (d/f/e/d/c/B/) | cE^F G2(A/B/) |\
| cE^F G2(A/B/) | (c/B/c/d/e/^f/) gea | gec dcA | A3 A2 |]
